X:503
T:Horizonto
R:jig
C:Paul James, England
Z:id:hn-jig-503
M:6/8
L:1/8
K:Dm
ABA GAF | GEF DEC | A,2D DEF | EDE CDE |
F3 FGF | EDE CDE | FED EDC |1 A,=B,C D3 :|2 A,=B,C DCA, ||
B,2B, DEF | B,2B, DEF | A,2A, DEF | A,2A, DEF |
B,2B, DEF | B,2B, DEF | ABA GAF | GEF DEC |
B,2B, DEF | B,2B, DEF | A,2A, DEF | A,2A, DEF |
B,2B, DEF | B,2B, DEF | =B,2=B, DEF | =B,2=B, DEF ||
B2 A2 GF | E3 EFG | A2 G2 FE | D3 DEF |
G2 F2 ED | ^C3 CDE | F2 G2 ^G2 | A3 FGA |
B2 c2 B2 | E3 EFG | A2 B2 AF | D3 DEF |
G2 F2 ED | ^C3 ^CDE | FED EDC | A,=B,C D3 ||

